X: 15659
T: Going To The Well For Water
R: slide
M: 12/8
K: Dmajor
|:A|d2f A2f Aff fed|c2g B2g Bgg gfe|
d2f A2f fef a2f|ged c2e d3 d2:|
|:e|f2f fed e2e efe|d2e fed B2c dcA|
G2B G2B FAA F2A|E2D e2d cBc d2:|

